X: 43
sign
M:C|
L:1/8
K:F
uAFcF dFcF|AFcF GABG|AFcF dFcF|BAGA BdcB|\
vfgag f2 (cf)|g^fga baga|=fgag f2 (Ac)|BAGA Bcde|\
fgag f2 (cf)|g^fga bagb|afge fdec|dBcA (BA)GB"_D.C.""^<coda>"|| [f3A3] z


